flaticon/gastronomy/milk-1.svg

<svg xmlns="http://www.w3.org/2000/svg" width="32" height="32" viewBox="0 0 24 24">
    <path d="M 19.117188 7.726562 C 19.117188 7.679688 19.101562 7.632812 19.085938 7.589844 C 19.082031 7.574219 19.082031 7.5625 19.078125 7.546875 L 19.074219 7.546875 L 16.269531 1.9375 L 16.269531 0.40625 C 16.269531 0.285156 16.214844 0.167969 16.121094 0.0898438 C 16.027344 0.015625 15.898438 -0.015625 15.78125 0.0078125 L 8.050781 1.636719 C 7.863281 1.675781 7.730469 1.839844 7.730469 2.035156 L 7.730469 3.53125 L 4.953125 7.496094 C 4.953125 7.5 4.953125 7.503906 4.949219 7.507812 C 4.921875 7.554688 4.898438 7.605469 4.890625 7.65625 C 4.886719 7.664062 4.886719 7.671875 4.886719 7.679688 C 4.886719 7.695312 4.882812 7.710938 4.882812 7.730469 L 4.882812 21.152344 C 4.882812 21.316406 4.976562 21.460938 5.128906 21.527344 L 10.824219 23.96875 C 10.828125 23.96875 10.832031 23.96875 10.835938 23.96875 C 10.882812 23.988281 10.933594 24 10.984375 24 C 11.019531 24 11.050781 23.996094 11.085938 23.988281 L 18.816406 21.953125 C 18.996094 21.90625 19.117188 21.742188 19.117188 21.558594 Z M 13.421875 2.132812 L 13.421875 1.335938 L 14.238281 1.164062 L 14.238281 1.960938 Z M 12.609375 2.304688 L 11.796875 2.472656 L 11.796875 1.679688 L 12.609375 1.507812 Z M 10.984375 2.644531 L 10.167969 2.816406 L 10.167969 2.035156 C 10.167969 2.03125 10.167969 2.027344 10.167969 2.023438 L 10.984375 1.851562 Z M 8.722656 3.953125 L 12.675781 3.121094 L 15.640625 2.496094 L 18.125 7.460938 L 15.609375 8.125 L 11.207031 9.28125 L 9.136719 4.839844 Z M 18.304688 8.761719 L 11.390625 14.582031 L 11.390625 10.074219 L 18.304688 8.257812 Z M 5.695312 8.304688 L 10.578125 10.050781 L 10.578125 14.839844 L 5.695312 12.75 Z M 5.695312 13.632812 L 10.578125 15.726562 L 10.578125 20.941406 L 5.695312 18.851562 Z M 11.390625 15.648438 L 18.304688 9.824219 L 18.304688 15.261719 L 11.390625 20.71875 Z M 15.457031 1.703125 L 15.050781 1.789062 L 15.050781 0.992188 L 15.457031 0.910156 Z M 8.542969 2.363281 L 9.355469 2.191406 L 9.355469 2.988281 L 8.542969 3.160156 Z M 8.066406 4.472656 L 9.132812 6.761719 L 10.203125 9.050781 L 5.925781 7.523438 Z M 5.695312 19.734375 L 10.578125 21.828125 L 10.578125 22.976562 L 5.695312 20.882812 Z M 11.390625 23.066406 L 11.390625 21.757812 L 18.304688 16.296875 L 18.304688 21.246094 Z M 11.390625 23.066406"/>
    <path d="M 13.058594 7.265625 C 13.246094 7.488281 13.554688 7.71875 14.015625 7.71875 C 14.140625 7.71875 14.277344 7.703125 14.425781 7.664062 C 15.125 7.480469 15.355469 7.011719 15.425781 6.644531 C 15.507812 6.242188 15.417969 5.816406 15.339844 5.535156 C 14.957031 4.070312 14.128906 3.957031 13.5 4.121094 C 12.871094 4.285156 12.203125 4.789062 12.585938 6.253906 C 12.660156 6.539062 12.789062 6.953125 13.058594 7.265625 Z M 13.707031 4.910156 C 13.773438 4.890625 13.84375 4.878906 13.910156 4.878906 C 14.144531 4.878906 14.371094 5.039062 14.554688 5.738281 C 14.609375 5.945312 14.675781 6.25 14.628906 6.488281 C 14.597656 6.644531 14.527344 6.796875 14.222656 6.878906 C 13.914062 6.957031 13.777344 6.859375 13.675781 6.738281 C 13.519531 6.550781 13.429688 6.253906 13.375 6.046875 C 13.136719 5.140625 13.410156 4.988281 13.707031 4.910156 Z M 13.707031 4.910156"/>
</svg>

<svg xmlns="http://www.w3.org/2000/svg" width="32" height="32" viewBox="0 0 24 24">
    <path d="M19.117 7.727a.41.41 0 0 0-.031-.137c-.004-.016-.004-.027-.008-.043h-.004l-2.804-5.61V.407A.414.414 0 0 0 16.12.09a.424.424 0 0 0-.34-.082l-7.73 1.629a.403.403 0 0 0-.32.398v1.496L4.952 7.496c0 .004 0 .008-.004.012a.437.437 0 0 0-.058.148c-.004.008-.004.016-.004.024 0 .015-.004.03-.004.05v13.422c0 .164.094.309.246.375l5.695 2.442h.012a.389.389 0 0 0 .25.02l7.73-2.036c.18-.047.301-.21.301-.394zm-5.695-5.594v-.797l.816-.172v.797zm-.813.172l-.812.168V1.68l.812-.172zm-1.625.34l-.816.171v-.78-.013l.816-.171zM8.723 3.953l3.953-.832 2.965-.625 2.484 4.965-2.516.664-4.402 1.156-2.07-4.441zm9.582 4.809l-6.914 5.82v-4.508l6.914-1.816zm-12.61-.457l4.883 1.746v4.789l-4.883-2.09zm0 5.328l4.883 2.094v5.214l-4.883-2.09zm5.696 2.015l6.914-5.824v5.438l-6.914 5.457zm4.066-13.945l-.406.086V.992l.406-.082zm-6.914.66l.812-.172v.797l-.812.172zm-.477 2.11l1.067 2.289 1.07 2.289-4.277-1.528zm-2.37 15.261l4.882 2.094v1.149l-4.883-2.094zm5.695 3.332v-1.308l6.914-5.461v4.95zm0 0"/>
    <path d="M13.059 7.266c.187.222.496.453.957.453.125 0 .261-.016.41-.055.699-.184.93-.652 1-1.02.082-.402-.008-.828-.086-1.109-.383-1.465-1.211-1.578-1.84-1.414-.629.164-1.297.668-.914 2.133.074.285.203.7.473 1.012zm.648-2.356a.733.733 0 0 1 .203-.031c.235 0 .461.16.645.86.054.206.12.511.074.75-.031.156-.102.308-.406.39-.309.078-.446-.02-.547-.14-.156-.188-.246-.485-.301-.692-.238-.906.035-1.059.332-1.137zm0 0"/>
</svg>
